X: 1
T: Jack's Pocket Ashtray
C: G.Edwardson
R: jig
Z: 2011 John Chambers <jc:trillian.mit.edu>
S: printed MS of unknown origin, from Mike Briggs
M: 6/8
L: 1/8
K: G
d \
| "G"gfe "D7"fed | "G"e2B B2d | "Em"e2d "E7"e2d | "Am"c3 c2e \
| "D7"fed f2a | "D7"f2d d2e |1 "D7"fed c2d | "G"B3 "D7"B2 :|2 "D7"fed cBA "G"G3 G2 |]
|: B \
| "G"dcB d2e | "G"d2B "G7"B2d | "C"edc e2f | "A7"e3 e2e \
| "D7"fed f2a | "D7"f2d d2e |1 "D7"fed c2d | "G"B3 "D7"B2 :|2 "D7"fed cBA "G"G3 G2 |]
